_assets/img/icons/content-script-link.svg

<svg xmlns="http://www.w3.org/2000/svg" xmlns:xlink="http://www.w3.org/1999/xlink" width="24" height="24" viewBox="0 0 24 24">
  <defs>
    <path id="content-script-a" d="M0.5,11 L0.5,10.3131646 L1.5,10.3131646 L1.5,10.3131769 C2.01605451,10.3131769 2.27027153,10.0776526 2.41256899,9.32429901 L2.41256899,4.75280329 C2.41256899,2.99685023 3.76483207,2.07918564 5.95970989,2.00065182 C6.51164145,1.98090344 6.97507961,2.41232314 6.99482799,2.9642547 C7.01457638,3.51618626 6.58315667,3.97962442 6.03122511,3.99937281 C4.78223826,4.04406217 4.41256899,4.2949249 4.41256899,4.75280329 L4.41256899,9.41317702 L4.39829795,9.58151723 C4.24471349,10.4808427 3.89135203,11.1874952 3.36205371,11.6565823 C3.89135203,12.1256693 4.24471349,12.8323218 4.39829795,13.7316473 L4.41256899,13.8999876 L4.41256899,18.5603613 C4.41256899,19.0182397 4.78223826,19.2691024 6.03122511,19.3137918 C6.58315667,19.3335401 7.01457638,19.7969783 6.99482799,20.3489099 C6.97507961,20.9008414 6.51164145,21.3322611 5.95970989,21.3125127 C3.76483207,21.2339789 2.41256899,20.3163143 2.41256899,18.5603613 L2.41256899,13.9888656 C2.27027153,13.235512 2.01605451,12.9999877 1.5,12.9999877 L1.5,13 L0.5,13 L0.5,11 Z M23.4954798,11 L23.4954798,13 L22.4954798,13 L22.4954798,12.9999877 C21.9794253,12.9999877 21.7252083,13.235512 21.5829108,13.9888656 L21.5829108,18.5603613 C21.5829108,20.3163143 20.2306477,21.2339789 18.0357699,21.3125127 C17.4838384,21.3322611 17.0204002,20.9008414 17.0006518,20.3489099 C16.9809034,19.7969783 17.4123231,19.3335401 17.9642547,19.3137918 C19.2132416,19.2691024 19.5829108,19.0182397 19.5829108,18.5603613 L19.5829108,13.8999876 L19.5971819,13.7316473 C19.7507663,12.8323218 20.1041278,12.1256693 20.6334261,11.6565823 C20.1041278,11.1874952 19.7507663,10.4808427 19.5971819,9.58151723 L19.5829108,9.41317702 L19.5829108,4.75280329 C19.5829108,4.2949249 19.2132416,4.04406217 17.9642547,3.99937281 C17.4123231,3.97962442 16.9809034,3.51618626 17.0006518,2.9642547 C17.0204002,2.41232314 17.4838384,1.98090344 18.0357699,2.00065182 C20.2306477,2.07918564 21.5829108,2.99685023 21.5829108,4.75280329 L21.5829108,9.32429901 C21.7252083,10.0776526 21.9794253,10.3131769 22.4954798,10.3131769 L22.4954798,10.3131646 L23.4954798,10.3131646 L23.4954798,11 Z M12,13 C11.4477153,13 11,12.5522847 11,12 C11,11.4477153 11.4477153,11 12,11 C12.5522847,11 13,11.4477153 13,12 C13,12.5522847 12.5522847,13 12,13 Z M8,13 C7.44771525,13 7,12.5522847 7,12 C7,11.4477153 7.44771525,11 8,11 C8.55228475,11 9,11.4477153 9,12 C9,12.5522847 8.55228475,13 8,13 Z M16,13 C15.4477153,13 15,12.5522847 15,12 C15,11.4477153 15.4477153,11 16,11 C16.5522847,11 17,11.4477153 17,12 C17,12.5522847 16.5522847,13 16,13 Z"/>
  </defs>
  <g fill="none" fill-rule="evenodd">
    <mask id="content-script-b" fill="#fff">
      <use xlink:href="#content-script-a"/>
    </mask>
    <use fill="#0060DF" fill-rule="nonzero" xlink:href="#content-script-a"/>
    <g fill="#0060DF" fill-rule="nonzero" mask="url(#content-script-b)">
      <rect width="24" height="24"/>
    </g>
  </g>
</svg>

<svg id="Layer_1" data-name="Layer 1" xmlns="http://www.w3.org/2000/svg" width="24" height="24" viewBox="0 0 24 24">
  <title>content-script-link</title>
  <path d="M.5,11v-.69h1c.52,0,.77-.23.91-1V4.75C2.41,3,3.76,2.08,6,2A1,1,0,0,1,6,4c-1.25,0-1.62.29-1.62.75V9.58a3.53,3.53,0,0,1-1,2.08,3.5,3.5,0,0,1,1,2.07v4.83c0,.46.37.71,1.62.75a1,1,0,0,1,1,1,1,1,0,0,1-1,1c-2.2-.08-3.55-1-3.55-2.75V14c-.14-.75-.39-1-.91-1H.5Zm23,0v2h-1c-.52,0-.77.24-.92,1v4.57c0,1.76-1.35,2.67-3.54,2.75a1,1,0,1,1-.08-2c1.25,0,1.62-.29,1.62-.75V13.9l0-.17a3.44,3.44,0,0,1,1-2.07,3.46,3.46,0,0,1-1-2.08l0-.17V4.75c0-.46-.37-.71-1.62-.75A1,1,0,0,1,18,2c2.19.08,3.54,1,3.54,2.75V9.32c.15.76.4,1,.92,1h1ZM12,13a1,1,0,1,1,1-1A1,1,0,0,1,12,13ZM8,13a1,1,0,1,1,1-1A1,1,0,0,1,8,13Zm8,0a1,1,0,1,1,1-1A1,1,0,0,1,16,13Z" fill="#0060df"/>
</svg>
